X:8
T:Young May Moon, The
S:John Moore's Book 3
Z:Transcribed by Steve Mansfield 05/2021
%%VWML: Moore1-4495-p5-0
F:https://www.vwml.org/record/Moore3/4495/p5
M:6/8
L:1/8
K:D
A | d2d d2A | B2A A2A | d2d ede | f2d def | 
gag fgf | efd cBA | BAG FGA | B2A A2 ||
a | b2b afa | b2b afa | bag afa | g2e e2a | 
bag agf | gfe fed | dcB AFA | B2A A2 |]

